X:7
T:Caissons Go Rolling Along
M:4/4
K:HP
|:{g}e1c1|{gef}e2{g}e1c1 {gef}e2{g}e1c1 | {g}e3/2f/2 {g}e1c1 {gef}e2{g}c1d1 | {gef}e1d1- d1B1 {gef}e1d1- d1B1 | {G}A4{GAG}A2:|!
e{A}e|a2{g}a2 {ef}e2-e2| {g}f3/2g/2 a1f1 {gef}e2-e2 | a1{g}a1- a1g1 {a}f2{gf}g1a1 | {f}g2{a}f2{g}e3{A}e|!
a2{g}a2{ef}e2-e2|{g}f3/2g/2 a1f1{gef}e2{g}c1d1|{gef}e1d1- d1B1 {gef}e1d1- d1B1 | {G}A4{GAG}A2 |]!

